X:1
T:Golden Gate, 76.76 D
T:Golden Gate, 76.76 D
T:Friedrich Silcher (1789-1860)
T:Public Domain Courtesy of the Cyber Hymnal™
C:Friedrich Silcher (1789-1860)
Z:Public Domain
Z:Courtesy of the Cyber Hymnal™
%%score ( 1 2 ) ( 3 4 )
L:1/8
Q:1/4=95
M:6/8
K:C
V:1 treble 
V:2 treble 
V:3 bass 
V:4 bass 
V:1
 [EG] | [EG]>[FA][EG] ([Ac][GB])[FA] | [EG]3 [DF]2 [DF] | [CE]2 ([CE]/[CE]/) ([B,D][A,C])[B,D] | %4
 [CE]4 z [EG] | [EG]>[FA][EG] ([Ac][GB])[FA] | [EG]3 [DF]2 [DF] | %7
 [CE]2 ([CE]/[CE]/) ([EG][DF])[B,D] | C4 z [CE] | ([B,D]>[CE])[B,D] [B,G][B,D][DG] | %10
 [GB]3 [EA]2 [EA] | [DG]2 [DG] (^FG)[DA] | G3- G2 [DG] | [EG]>[FA][EG] ([Ac][GB])[FA] | %14
 ([EG]2 [Ge]) [Fd]2 [Dd] | [Ec]2 [Ec] (BA)[FB] | [Ec]3- [Ec]2 |] %17
V:2
 x | x6 | x6 | x6 | x6 | x6 | x6 | x6 | C4 x2 | x6 | x6 | x3 D2 x | (D2 E FE) x | x6 | x6 | %15
 x3 F2 x | x5 |] %17
V:3
 [C,C] | [C,C]>[C,C][C,C] (A,B,)[C,C] | [C,C]3 [F,A,]2 [F,A,] | G,2 (G,/G,/) [G,,G,]2 [G,,G,] | %4
 [C,G,]4 z [C,C] | [C,C]>[C,C][C,C] (A,B,)[C,C] | [C,C]3 [F,A,]2 [F,A,] | %7
 G,2 G,/G,/ [G,,G,]2 [G,,F,] | [C,E,]4 z [C,G,] | G,>G,G, G,G,[G,B,] | [G,D]3 [C,C]2 [C,C] | %11
 [D,B,]2 [D,B,] (A,B,)[D,C] | (B,2 C DC)[G,B,] | [C,C]>[C,D][C,D] (A,B,)[C,C] | %14
 (C2 G,) [F,A,]2 [F,A,] | G,2 G, [G,D]2 [G,,G,] | [C,G,]3- [C,G,]2 |] %17
V:4
 x | x3 C,2 x | x6 | G,2 G,/G,/ x3 | x6 | x3 C,2 x | x6 | G,2 (G,/G,/) x3 | x6 | (G,>G,)G, G,G, x | %10
 x6 | x3 D,2 x | G,3- G,2 x | x3 C,2 x | C,3 x3 | G,2 G, x3 | x5 |] %17

